X:2657
T:Careáu (XA 59)
R:Careáu
C:Tradicional
S:Música Tradicional Asturiana, (C) Tello & Tito. Asturies, 2001.
S:http://pagina.de/MusTradAst <telloytito@asturies.org>
N:Baille del Oucidente asturianu.
N:El ritmu ye tenrariu.
N:Los bailladores dancien en rueda y van cambiando de parexa demientres van dando vueltes, dándose la cara "careándose".
N:Nes brañes de Silvamayor, Emberniegu, Busecu y Aristébanu cántase con payel.la.
N:Nes de Tinéu acompáñase de pandeiru redondu y payel.la.
O:Oucidente d'Asturies
A:Asturies
Z:Métodu de Xuacu Amieva 59
M:3/8
L:1/8
Q:3/8=80
K:C
~G
|: CCE|G2 G|~GFE|F2 F|~F~ED|E~DC|D~CB,|C2 ~G :|
|CCE|G2 G|~GFE|F2 F|~F~ED|E~DC|D~CB,|C3-|C3|
|: G>AB|cB~A|G>AB|cB~A|G3|A3|
|A>BA|~G~F~E|D>EF|G~F~E|D3|G3 :|
|G>GG|G3|G2 G|GGF|GGG|GG_A|_B2 _A|G2 F|G2 F|E3|
|: G>GG|GGF|G2 E|C3|D>DD|DDB,|C C/C/ C|C3 :|
|: G>AB|cB~A|G>AB|cB~A|G3|A3|A>BA|~G~F~E|D>EF|G~F~E|D3|G3 :|G>GG|G3|
|: G2 _A|F2 _E|G2 _A|F2 _E|G2 _A|F2 ~G|F_E~D|[1 C3 :|[2 C2 C/D/|
|_E~DC|_E~DC|_E~DC|B, B,/B,/ B,|B,2 D/_E/|
|F_ED|_EDC|DCB,|C C/C/ C|C2 C/D/|
|_E/D/C/_E/D/C/|_E/D/C/_E/D/C/|_E/D/C/_E/D/C/|G G/G/ G|G2 D/_E/|
|F/_E/D/F/_E/D/|_E/D/C/_E/D/C/|D/C/B,/D/C/B,/|C C/C/ C|C2 ~G|
|: CCE|G2 G|~GFE|F2 F|~FED|E~DC|D~CB,|C2 ~G :|
|CCE|G2 G|~GFE|F2 F|~FED|E~DC|D~CB,|CEG|c z2|


